!!!OTL: Fengyi zushi wanwannian
!!!ARE: Asia, China,ÿHubei Xianfeng
!! I, 371
!!!SCT: C2135
!!!YEM: Copyright 1995, estate of Helmut Schaffrath.
**kern
*ICvox
*Ivox
*M2/4
*k[]
*C:
{4r
4ee}
=1
{8ee
8ee
8ee
8ee
=2
16cc
16ee
8cc
8ee
8a
=3
16cc
16dd
16cc
16a
16cc
16dd
8a
=4
8cc
8a
4cc}
=5
{8dd
8dd
8a
8cc
=6
16a
16cc
8a
16a
16dd
8cc
=7
16dd
16cc
8a
4cc
=8
8dd
8cc
4a
=9
8.g
16a
4cc}
=10
{8cc
8dd
8a
8cc
=11
8cc
8a
8cc
8a
=12
2g}
=13
{4r
4ee}
=14
{16gg
16ee
8ee
16dd
16ee
8ee
=15
16cc
16ee
8cc
16cc
16dd
8a
=16
8a
16cc
16dd
16a
16cc
8a
=17
8a
8cc
4a}
=18
{16a
16cc
8a
8a
8cc
=19
16cc
16dd
8a
8cc
8cc
=20
8a
8a
8.cc
16dd
=21
8a
8cc
4a}
=22
{8.g
16a
4cc
=23
8cc
8dd
8a
8cc
=24
8cc
8a
8cc
8a
=25
2g}
=26
{4r
4ee}
=27
{8ee
8ee
8ee
8cc
=28
16cc
16ee
8a
4cc
=29
8a
8a
8cc
8a
=30
8cc
8a
4cc}
=31
{8a
8a
16cc
16ee
16cc
16ee
=32
8a
8a
16a
16cc
8a
=33
16g
16a
8a
16a
16cc
8a
=34
8cc
16dd
16cc
4a}
=35
{8cc
16dd
16dd
16cc
16a
8a
=36
16cc
16dd
8a
16a
16dd
8cc
=37
16cc
16dd
8a
4cc
=38
16a
16cc
8cc
4a}
=39
{8.g
16a
4cc
=40
8cc
8dd
8a
8cc
=41
8cc
8a
8cc
8a
=42
2g}
==
!!!AGN: Wuge, Dengdiao, Hanlongchuan
!!!ONB: ESAC (Essen Associative Code) Database: SENGANSU
!!!AMT: simple duple
!!!AIN: vox
!!!EED: Helmut Schaffrath
!!!EEV: 1.0
*-
